X:230
T: WAS SCHIMMERT DORT AUF DEM BERGE SO SCHOEN
N: B0277
O: Europa, Mitteleuropa, Deutschland
R: Stimmungs - Lied, Natur, Andacht
M: 4/4
L: 1/16
K: Eb
G4 | G6^F2G4A3G | F4G3FE4z2
EE | F4B,4G6EG | B4G2G2F4z2
B2 | B4F3GA4F3E | D4E3FB,4z2
FF | G4F2E2F6F2 | B4B2G2F4z2
G2 | G4G2G2G4G4 | G2z2G2z2G4z2
G2 | G4G2G2B4A2F2 | E4F4G4z2
G2 | G4G2G2B4A2F2 | E4F4G4z2
G2 | G4G2G2c4A2F2 | E4F4G4z2
G2 | G4G2G2c4A2F2 | B8D8 | E8z4

